build/img/sprite/icon-maindirection-med.svg

<svg width="85" height="85" viewBox="0 0 85 85" fill="none" xmlns="http://www.w3.org/2000/svg">
<circle cx="42.5" cy="42.5" r="42" stroke="white"/>
<path d="M30.25 22.625C30.2503 22.3267 30.369 22.0408 30.5799 21.8299C30.7908 21.619 31.0767 21.5003 31.375 21.5H51.625C51.9233 21.5003 52.2092 21.619 52.4201 21.8299C52.631 22.0408 52.7497 22.3267 52.75 22.625V26.75H54.25V22.625C54.2492 21.9291 53.9724 21.2618 53.4803 20.7697C52.9882 20.2776 52.3209 20.0008 51.625 20H31.375C30.6791 20.0008 30.0118 20.2776 29.5197 20.7697C29.0276 21.2618 28.7508 21.9291 28.75 22.625V26.75H30.25V22.625Z" fill="white"/>
<path d="M52.75 59H30.25V56.75H28.75V62.375C28.7508 63.0709 29.0276 63.7382 29.5197 64.2303C30.0118 64.7224 30.6791 64.9992 31.375 65H51.625C52.3209 64.9992 52.9882 64.7224 53.4803 64.2303C53.9724 63.7382 54.2492 63.0709 54.25 62.375V56.75H52.75V59ZM51.625 63.5H31.375C31.0767 63.4997 30.7908 63.381 30.5799 63.1701C30.369 62.9592 30.2503 62.6733 30.25 62.375V60.5H52.75V62.375C52.7497 62.6733 52.631 62.9592 52.4201 63.1701C52.2092 63.381 51.9233 63.4997 51.625 63.5Z" fill="white"/>
<path d="M38.5 23.75H44.5V25.25H38.5V23.75Z" fill="white"/>
<path d="M62.5 53.5625C62.5 53.6122 62.4802 53.6599 62.4451 53.6951C62.4099 53.7302 62.3622 53.75 62.3125 53.75H20.6875C20.6378 53.75 20.5901 53.7302 20.5549 53.6951C20.5198 53.6599 20.5 53.6122 20.5 53.5625V34.25H19V53.5625C19.0005 54.0099 19.1785 54.4388 19.4948 54.7552C19.8112 55.0715 20.2401 55.2495 20.6875 55.25H62.3125C62.7599 55.2495 63.1888 55.0715 63.5052 54.7552C63.8215 54.4388 63.9995 54.0099 64 53.5625V47.75H62.5V53.5625Z" fill="white"/>
<path d="M62.3125 28.25H20.6875C20.2401 28.2505 19.8112 28.4285 19.4948 28.7448C19.1785 29.0612 19.0005 29.4901 19 29.9375V32.75H20.5V29.9375C20.5 29.8878 20.5198 29.8401 20.5549 29.8049C20.5901 29.7698 20.6378 29.75 20.6875 29.75H62.3125C62.3622 29.75 62.4099 29.7698 62.4451 29.8049C62.4802 29.8401 62.5 29.8878 62.5 29.9375V46.25H64V29.9375C63.9995 29.4901 63.8215 29.0612 63.5052 28.7448C63.1888 28.4285 62.7599 28.2505 62.3125 28.25Z" fill="white"/>
<path d="M46.75 47.75H48.25V50.75H46.75V47.75Z" fill="white"/>
<path d="M43.75 47.75H45.25V50.75H43.75V47.75Z" fill="white"/>
<path d="M49.75 47.75H52.75V50.75H49.75V47.75Z" fill="white"/>
<path d="M54.25 47.75H55.75V50.75H54.25V47.75Z" fill="white"/>
<path d="M57.25 47.75H60.25V50.75H57.25V47.75Z" fill="white"/>
<path d="M43.75 40.25H54.25V41.75H43.75V40.25Z" fill="white"/>
<path d="M55.75 40.25H60.25V41.75H55.75V40.25Z" fill="white"/>
<path d="M49.75 43.25H60.25V44.75H49.75V43.25Z" fill="white"/>
<path d="M43.75 43.25H48.25V44.75H43.75V43.25Z" fill="white"/>
<path d="M43.75 37.25H46.75V38.75H43.75V37.25Z" fill="white"/>
<path d="M48.25 37.25H54.25V38.75H48.25V37.25Z" fill="white"/>
<path d="M52.75 32.75H54.25V34.25H52.75V32.75Z" fill="white"/>
<path d="M55.75 32.75H57.25V34.25H55.75V32.75Z" fill="white"/>
<path d="M58.75 32.75H60.25V34.25H58.75V32.75Z" fill="white"/>
<path d="M43.75 34.25H50.5V35.75H43.75V34.25Z" fill="white"/>
<path d="M40 52.25C40.1989 52.25 40.3897 52.171 40.5303 52.0303C40.671 51.8897 40.75 51.6989 40.75 51.5V32C40.75 31.8011 40.671 31.6103 40.5303 31.4697C40.3897 31.329 40.1989 31.25 40 31.25H23.5C23.3011 31.25 23.1103 31.329 22.9697 31.4697C22.829 31.6103 22.75 31.8011 22.75 32V51.5C22.75 51.6989 22.829 51.8897 22.9697 52.0303C23.1103 52.171 23.3011 52.25 23.5 52.25H40ZM24.25 48.9491C24.2513 48.5295 24.3799 48.1202 24.6189 47.7754C24.8579 47.4305 25.1959 47.1664 25.5883 47.0178L29.2375 45.65L29.65 46.2004C29.8945 46.5264 30.2116 46.791 30.5761 46.9733C30.9406 47.1555 31.3425 47.2504 31.75 47.2504C32.1575 47.2504 32.5594 47.1555 32.9239 46.9733C33.2884 46.791 33.6055 46.5264 33.85 46.2004L34.2625 45.65L37.9114 47.0188C38.3037 47.1672 38.6417 47.4312 38.8807 47.7759C39.1197 48.1205 39.2485 48.5296 39.25 48.9491V50.75H24.25V48.9491ZM33.1642 44.6143L32.65 45.3C32.5452 45.4398 32.4093 45.5532 32.2531 45.6313C32.0969 45.7094 31.9247 45.75 31.75 45.75C31.5753 45.75 31.4031 45.7094 31.2469 45.6313C31.0907 45.5532 30.9548 45.4398 30.85 45.3L30.3358 44.6143L30.7906 43.25H32.7094L33.1642 44.6143ZM34 40.625C33.9997 40.9233 33.881 41.2092 33.6701 41.4201C33.4592 41.631 33.1733 41.7497 32.875 41.75H30.625C30.3267 41.7497 30.0408 41.631 29.8299 41.4201C29.619 41.2092 29.5003 40.9233 29.5 40.625V36.875C29.5003 36.5767 29.619 36.2908 29.8299 36.0799C30.0408 35.869 30.3267 35.7503 30.625 35.75H32.875C33.1733 35.7503 33.4592 35.869 33.6701 36.0799C33.881 36.2908 33.9997 36.5767 34 36.875V40.625ZM39.25 32.75V46.046C38.9995 45.867 38.7267 45.7215 38.4384 45.6133L34.5983 44.1733L34.1754 42.9046C34.5775 42.6751 34.9118 42.3434 35.1444 41.943C35.3771 41.5427 35.4997 41.088 35.5 40.625V36.875C35.4992 36.1791 35.2224 35.5118 34.7303 35.0197C34.2382 34.5276 33.5709 34.2508 32.875 34.25H30.625C29.9291 34.2508 29.2618 34.5276 28.7697 35.0197C28.2776 35.5118 28.0008 36.1791 28 36.875V40.625C28.0003 41.088 28.1229 41.5427 28.3556 41.943C28.5882 42.3434 28.9225 42.6751 29.3246 42.9046L28.9017 44.1733L25.0616 45.6133C24.7733 45.7215 24.5005 45.867 24.25 46.046V32.75H39.25Z" fill="white"/>
</svg>

<svg width="85" height="85" fill="none" xmlns="http://www.w3.org/2000/svg"><circle cx="42.5" cy="42.5" r="42" stroke="#fff"/><path d="M30.25 22.625a1.126 1.126 0 011.125-1.125h20.25a1.126 1.126 0 011.125 1.125v4.125h1.5v-4.125A2.628 2.628 0 0051.625 20h-20.25a2.628 2.628 0 00-2.625 2.625v4.125h1.5v-4.125zM52.75 59h-22.5v-2.25h-1.5v5.625A2.628 2.628 0 0031.375 65h20.25a2.628 2.628 0 002.625-2.625V56.75h-1.5V59zm-1.125 4.5h-20.25a1.126 1.126 0 01-1.125-1.125V60.5h22.5v1.875a1.126 1.126 0 01-1.125 1.125z" fill="#fff"/><path d="M38.5 23.75h6v1.5h-6v-1.5zm24 29.813a.188.188 0 01-.188.187H20.688a.188.188 0 01-.188-.188V34.25H19v19.313a1.69 1.69 0 001.688 1.687h41.624A1.69 1.69 0 0064 53.562V47.75h-1.5v5.813zm-.187-25.313H20.687A1.69 1.69 0 0019 29.938v2.812h1.5v-2.813a.188.188 0 01.188-.187h41.624a.188.188 0 01.188.188V46.25H64V29.937a1.69 1.69 0 00-1.688-1.687z" fill="#fff"/><path d="M46.75 47.75h1.5v3h-1.5v-3zm-3 0h1.5v3h-1.5v-3zm6 0h3v3h-3v-3zm4.5 0h1.5v3h-1.5v-3zm3 0h3v3h-3v-3zm-13.5-7.5h10.5v1.5h-10.5v-1.5zm12 0h4.5v1.5h-4.5v-1.5zm-6 3h10.5v1.5h-10.5v-1.5zm-6 0h4.5v1.5h-4.5v-1.5zm0-6h3v1.5h-3v-1.5zm4.5 0h6v1.5h-6v-1.5zm4.5-4.5h1.5v1.5h-1.5v-1.5zm3 0h1.5v1.5h-1.5v-1.5zm3 0h1.5v1.5h-1.5v-1.5zm-15 1.5h6.75v1.5h-6.75v-1.5zm-3.75 18a.75.75 0 00.75-.75V32a.75.75 0 00-.75-.75H23.5a.75.75 0 00-.75.75v19.5a.75.75 0 00.75.75H40zm-15.75-3.3a2.071 2.071 0 011.338-1.932l3.65-1.368.412.55a2.626 2.626 0 004.2 0l.413-.55 3.648 1.369a2.071 2.071 0 011.339 1.93v1.801h-15v-1.8zm8.914-4.336l-.514.686a1.125 1.125 0 01-1.8 0l-.514-.686.455-1.364h1.918l.455 1.364zM34 40.625a1.126 1.126 0 01-1.125 1.125h-2.25a1.126 1.126 0 01-1.125-1.125v-3.75a1.126 1.126 0 011.125-1.125h2.25A1.126 1.126 0 0134 36.875v3.75zm5.25-7.875v13.296a3.528 3.528 0 00-.812-.433l-3.84-1.44-.423-1.268a2.626 2.626 0 001.325-2.28v-3.75a2.628 2.628 0 00-2.625-2.625h-2.25A2.628 2.628 0 0028 36.875v3.75a2.626 2.626 0 001.325 2.28l-.423 1.268-3.84 1.44a3.528 3.528 0 00-.812.433V32.75h15z" fill="#fff"/></svg>
